rospo-icon-theme-newyear-common/32x32/mimetypes/application-vnd.recordare.musicxml+xml.svg

<svg height="32" viewBox="0 0 32 32" width="32" xmlns="http://www.w3.org/2000/svg"><path d="m7.25 5c-.6925 0-1.25.5575-1.25 1.25v22.5c0 .692.5575 1.25 1.25 1.25h17.5c.692 0 1.25-.558 1.25-1.25v-15.75l-6.875-1.125-1.125-6.875z" opacity=".2"/><path d="m7.25 4c-.6925 0-1.25.5575-1.25 1.25v22.5c0 .692.5575 1.25 1.25 1.25h17.5c.692 0 1.25-.558 1.25-1.25v-15.75l-6.875-1.125-1.125-6.875z" fill="#e4e4e4"/><path d="m18 5v6.6667c0 .736.597 1.333 1.333 1.333h6.667l-8-8z" opacity=".2"/><path d="m18 4v6.6667c0 .736.597 1.333 1.333 1.333h6.667l-8-8z" fill="#fafafa"/><path d="m13 14-.000044.5v6.5s-.15572.000385-.49996-.000009c-1.3807 0-2.5 1.1193-2.5 2.5s1.1193 2.5 2.5 2.5c1.3622-.000835 2.473-1.0921 2.498-2.4541l.002-.0039v-6.542h5v4s-.15572.000394-.49995 0c-1.3807 0-2.5 1.1193-2.5 2.5s1.1193 2.5 2.5 2.5c1.3311-.0015 2.4276-1.0456 2.4941-2.375l.0059-.01172v-9.6133h-9z" opacity=".5"/><path d="m7.25 4c-.6925 0-1.25.5575-1.25 1.25v1c0-.6925.5575-1.25 1.25-1.25h10.75v-1z" fill="#fff" opacity=".2"/></svg>

<svg xmlns="http://www.w3.org/2000/svg" width="32" height="32" version="1.1" viewBox="0 0 32 32">
 <path style="opacity:0.2" d="M 7.25,5 C 6.5575,5 6,5.5575 6,6.25 l 0,22.5 C 6,29.442 6.5575,30 7.25,30 l 17.5,0 C 25.442,30 26,29.442 26,28.75 L 26,13 19.125,11.875 18,5 Z"/>
 <path style="fill:#cccccc" d="M 7.25,4 C 6.5575,4 6,4.5575 6,5.25 l 0,22.5 C 6,28.442 6.5575,29 7.25,29 l 17.5,0 C 25.442,29 26,28.442 26,27.75 L 26,12 19.125,10.875 18,4 Z"/>
 <path style="opacity:0.2" d="m 18,5 0,6.6667 c 0,0.736 0.597,1.333 1.333,1.333 l 6.667,0 -8,-8 z"/>
 <path style="fill:#ebebeb" d="m 18,4 0,6.6667 c 0,0.736 0.597,1.333 1.333,1.333 l 6.667,0 -8,-8 z"/>
 <path style="opacity:0.5" d="m 13,14 -4.4e-5,0.5 0,6.5 c 0,0 -0.15572,3.85e-4 -0.49996,-9e-6 -1.3807,0 -2.5,1.1193 -2.5,2.5 0,1.3807 1.1193,2.5 2.5,2.5 1.3622,-8.35e-4 2.473,-1.0921 2.498,-2.4541 l 0.002,-0.0039 0,-6.542 5,0 0,4 c 0,0 -0.15572,3.94e-4 -0.49995,0 -1.3807,0 -2.5,1.1193 -2.5,2.5 0,1.3807 1.1193,2.5 2.5,2.5 1.3311,-0.0015 2.4276,-1.0456 2.4941,-2.375 l 0.0059,-0.01172 0,-9.6133 -9,0 z"/>
 <path style="opacity:0.2;fill:#ffffff" d="M 7.25,4 C 6.5575,4 6,4.5575 6,5.25 l 0,1 C 6,5.5575 6.5575,5 7.25,5 L 18,5 18,4 Z"/>
</svg>
